src/images/pages/welcome/multipliers.svg

<svg width="48" height="48" viewBox="0 0 48 48" fill="none" xmlns="http://www.w3.org/2000/svg">
<path d="M0 12C0 5.37258 5.37258 0 12 0H36C42.6274 0 48 5.37258 48 12V36C48 42.6274 42.6274 48 36 48H12C5.37258 48 0 42.6274 0 36V12Z" fill="#33658A"/>
<path d="M10.9393 10.9393C11.5251 10.3536 12.4749 10.3536 13.0607 10.9393L24 21.8775L34.9393 10.9393C35.5251 10.3536 36.4749 10.3536 37.0607 10.9393C37.6014 11.4801 37.643 12.3309 37.1854 12.9193L37.0607 13.0607L26.1225 24L37.0607 34.9393L37.1854 35.0807C37.643 35.6691 37.6014 36.5199 37.0607 37.0607C36.4749 37.6464 35.5251 37.6464 34.9393 37.0607L24 26.1225L13.0607 37.0607C12.4749 37.6464 11.5251 37.6464 10.9393 37.0607C10.3986 36.5199 10.357 35.6691 10.8146 35.0807L10.9393 34.9393L21.8775 24L10.9393 13.0607L10.8146 12.9193C10.357 12.3309 10.3986 11.4801 10.9393 10.9393Z" fill="white"/>
</svg>

<svg width="48" height="48" fill="none" xmlns="http://www.w3.org/2000/svg"><path d="M0 12C0 5.373 5.373 0 12 0h24c6.627 0 12 5.373 12 12v24c0 6.627-5.373 12-12 12H12C5.373 48 0 42.627 0 36V12z" fill="#33658A"/><path d="M10.94 10.94a1.5 1.5 0 012.12 0L24 21.877l10.94-10.939a1.5 1.5 0 012.245 1.98l-.124.142L26.122 24l10.939 10.94.124.14a1.5 1.5 0 01-2.246 1.98L24 26.123 13.06 37.061a1.5 1.5 0 01-2.245-1.98l.124-.142L21.878 24 10.939 13.06l-.124-.14a1.5 1.5 0 01.124-1.98z" fill="#fff"/></svg>
